src/main/resources/icons/AllIcons/modules/generatedFolder.svg

<!-- Copyright 2000-2021 JetBrains s.r.o. Use of this source code is governed by the Apache 2.0 license that can be found in the LICENSE file. -->
<svg xmlns="http://www.w3.org/2000/svg" width="16" height="16" viewBox="0 0 16 16">
  <g fill="none" fill-rule="evenodd">
    <path fill="#9AA7B0" fill-opacity=".8" d="M6,10.9998 C6.14455943,8.10336637 8.60293599,5.86847859 11.5,5.9998 C12.7596151,5.99208796 13.9877444,6.39318446 15,7.14287 L15,3.9998 L7.98462,3.9998 L6.69629,2.71123 C6.22158519,2.28543452 5.61574625,2.0344507 4.979,1.9998 L1.05127,1.9998 C1.02297939,1.99979446 1.00003311,2.02270941 1,2.051 L1,12.9998 L6.46069,12.9998 C6.15836754,12.3763701 6.00087965,11.6926657 6,10.9998 Z"/>
    <path fill="#9AA7B0" d="M16,10.99945 L15.9999,11.00185 C14.5951231,10.2506164 12.9088348,10.2467186 11.5006,10.99145 L11.5006,10.98635 C11.5008,10.10965 12.7719,9.12795 13.5495,8.90735 C15.5117,8.35085 16,10.262 16,10.99945 Z M9.4519,13.09245 C10.2296,12.87205 11.5006,11.89025 11.5008,11.01355 L11.5008,11.00835 C10.0925657,11.7530472 8.40631,11.749187 7.0015,10.99805 L7.0015,11.00035 C7.0015,11.73785 7.4898,13.649 9.4519,13.09245 Z"/>
    <path fill="#9AA7B0" d="M9.2506,7.37755 L9.2528,7.37645 C9.25110618,8.11995724 9.45992356,8.84875521 9.8551,9.47855 C10.2580656,10.121691 10.8228262,10.6477617 11.4929,11.00415 L11.4881,11.00665 C10.4605258,11.2949016 9.35698128,11.0675664 8.527,10.39665 C7.0275,9.095 8.5637,7.74635 9.2506,7.37755 Z M14.4744,11.60315 C13.6444874,10.9321766 12.5409748,10.7047658 11.5134,10.99295 L11.5086,10.99555 C12.1786354,11.3519179 12.7433358,11.8779969 13.1462,12.52115 C13.541393,13.1509425 13.7502437,13.8797358 13.7486,14.62325 L13.7508,14.62215 C14.4377,14.25335 15.9739,12.90465 14.4744,11.60315 Z"/>
    <path fill="#9AA7B0" d="M9.2514,14.62265 L9.2493,14.62135 C9.92771218,14.2648503 10.4994978,13.7348849 10.9064,13.08545 C11.297675,12.4615487 11.506295,11.7404898 11.5086,11.00405 L11.5134,11.00665 C12.2880846,11.6675755 12.6382351,12.6999074 12.4255,13.69575 C11.9629,15.55375 9.9384,14.99135 9.2514,14.62265 Z M10.5757,8.30405 C10.363052,9.29990766 10.7132313,10.3322112 11.4879,10.99315 L11.4928,10.99575 C11.495011,10.2592827 11.7036755,9.53818965 12.0951,8.91435 C12.5019365,8.26487121 13.0736937,7.7348658 13.7521,7.37835 L13.7498,7.37715 C13.0629,7.00845 11.0384,6.44605 10.5757,8.30405 Z"/>
  </g>
</svg>

<svg xmlns="http://www.w3.org/2000/svg" width="16" height="16" viewBox="0 0 16 16"><rect id="frame" width="16" height="16" fill="none"/><g fill="#9AA7B0" fill-rule="evenodd"><path fill-opacity=".8" d="M6 11a5.268 5.268 0 0 1 5.5-5A5.82 5.82 0 0 1 15 7.143V4H7.985L6.696 2.71A2.8 2.8 0 0 0 4.98 2H1.051A.051.051 0 0 0 1 2.05V13h5.46A4.597 4.597 0 0 1 6 11z"/><path d="M16 11v.002a4.791 4.791 0 0 0-4.5-.01v-.006c0-.876 1.272-1.858 2.05-2.079C15.511 8.351 16 10.262 16 11zm-6.548 2.092c.778-.22 2.049-1.202 2.049-2.078v-.006a4.792 4.792 0 0 1-4.5-.01V11c0 .738.489 2.649 2.45 2.092z"/><path d="M9.25 7.378l.003-.002a3.938 3.938 0 0 0 .602 2.103c.403.643.968 1.169 1.638 1.525l-.005.003a3.295 3.295 0 0 1-2.961-.61c-1.5-1.302.037-2.65.724-3.02zm5.224 4.225a3.295 3.295 0 0 0-2.96-.61l-.005.003c.67.356 1.234.882 1.637 1.525.395.63.604 1.359.603 2.102h.002c.687-.37 2.223-1.718.723-3.02z"/><path d="M9.251 14.623l-.002-.002a4.335 4.335 0 0 0 1.657-1.536 3.94 3.94 0 0 0 .603-2.081l.004.003a2.773 2.773 0 0 1 .912 2.689c-.462 1.858-2.487 1.295-3.174.927zm1.325-6.319a2.774 2.774 0 0 0 .912 2.69l.005.002c.002-.737.21-1.458.602-2.082.407-.65.979-1.18 1.657-1.536h-.002c-.687-.37-2.712-.932-3.174.926z"/></g></svg>
